src/actions/24/plugins.svg

<svg viewBox="0 0 24 24" xmlns="http://www.w3.org/2000/svg">
 <defs>
  <style type="text/css">.ColorScheme-Text {
        color:#2e3440;
      }</style>
 </defs>
 <path class="ColorScheme-Text" d="m6 6v2h-2v12h16v-12h-2v-2h-4v2h-4v-2h-4z" fill="currentColor"/>
</svg>

<svg xmlns="http://www.w3.org/2000/svg" viewBox="0 0 24 24">
  <defs id="defs3051">
    <style type="text/css" id="current-color-scheme">
      .ColorScheme-Text {
        color:#2e3440;
      }
      </style>
  </defs>
 <path style="fill:currentColor;fill-opacity:1;stroke:none" 
     d="M 6 6 L 6 8 L 4 8 L 4 20 L 20 20 L 20 8 L 18 8 L 18 6 L 14 6 L 14 8 L 10 8 L 10 6 L 6 6 z "
     class="ColorScheme-Text"
     />
</svg>
